!!!COM: Joplin, Scott
!!!CDT: 1868/11/24/-1917/04/01/
!!!OTL: School of Ragtime
!!!ONB: Six Exercises for Piano
!!!ODT: 1906///
!!!PDT: 1908///
**kern	**kern	**kern
*staff3	*staff2	*staff1
*Ipiano	*Ipiano	*Icemba
*>[A,A,B,B,C,C,D,D,E,E,F,F]	*>[A,A,B,B,C,C,D,D,E,E,F,F]	*>[A,A,B,B,C,C,D,D,E,E,F,F]
*>norep[A,B,C,D,E,F]	*>norep[A,B,C,D,E,F]	*>norep[A,B,C,D,E,F]
*>A	*>A	*>A
*MM100	*MM100	*MM100
!!
!!
!! Exercise No. 1
!!
!!
*clefF4	*clefG2	*clefG2
*k[]	*k[]	*k[]
*M2/4	*M2/4	*M2/4
16r	[16a\ [16aa\	16a\ 16aa\
=1	=1	=1
8F\ 8A\ 8c\ 8f\L	16a\] 16aa\LL]	16a\ 16aa\LL
.	16cc\ 16ff\J	16cc\ 16ff\J
8F\ 8A\ 8c\ 8f\J	8a\ 8aa\J	8a\ 8aa\J
8F#\ 8A\ 8c\ 8d#\L	8a\ 8aa\L	8a\ 8aa\L
8F#\ 8A\ 8c\ 8d#\J	16a\ 16aa\L	16a\ 16aa\L
.	[16g\ [16gg\JJ	16g\ 16gg\JJ
=2	=2	=2
8G\ 8c\ 8e\L	16g\] 16gg\LL]	16g\ 16gg\LL
.	16cc\ 16ee\J	16cc\ 16ee\J
8G\ 8c\ 8e\J	8g\ 8gg\J	8g\ 8gg\J
8G\ 8c\ 8e\L	8g\ 8gg\L	8g\ 8gg\L
8G\ 8c\ 8e\J	16g\ 16gg\L	16g\ 16gg\L
.	[16g\ [16gg\JJ	16g\ 16gg\JJ
=3	=3	=3
8G\ 8B\ 8f\L	16g\] 16gg\LL]	16g\ 16gg\LL
.	16b\ (16dd\	16b\ 16dd\
8G\ 8B\ 8f\J	16g\ 16gg\	16g\ 16gg\
.	16b\JJ	16b\JJ
8G\ 8B\ 8f\L	16dd\LK)	16dd\LL
.	8g\ 8gg\	16g\ 16gg\
8G\ 8B\ 8d\J	.	16g\ 16gg\
.	[16e\ [16cc\Jk	16e\ 16cc\JJ
=4	=4	=4
8c\L	4e/_ 4cc/_	4e/ 4cc/
8G\J	.	.
[8C/L	8e'/_ 8cc'/L_	8e/ 8cc/L
16C/Jk]	16e/] 16cc/Jk]	16e/ 16cc/Jk
=5:|!	=5:|!	=5:|!
!!
!!
!! Exercise No. 2
!!
!!
*>B	*>B	*>B
*clefF4	*clefG2	*clefG2
*k[]	*k[]	*k[]
*M2/4	*M2/4	*M2/4
8.F\ 8.A\ 8.c\ 8.f\L	8.cc\ 8.ccc\L	16cc\ 16ccc\LL
.	.	16cc\ 16ccc\
.	.	16cc\ 16ccc\
[16F#\ [16A\ 16c\ [16d#\Jk	[16b\ [16bb\Jk	16b\ 16bb\JJ
8F#\] 8A\] 8B\ 8d#\L]	16b\] 16bb\LL]	16b\ 16bb\LL
.	16a\ 16aa\J	16a\ 16aa\J
8F#\ 8A\ 8c\ 8d#\J	8a\ 8aa\J	8a\ 8aa\J
=6	=6	=6
8.F#\ 8.A\ 8.c\ 8.d#\L	8.a\ 8.aa\L	16a\ 16aa\LL
.	.	16a\ 16aa\
.	.	16a\ 16aa\
[16G\ [16c\ [16e\Jk	[16g\ [16gg\Jk	16g\ 16gg\JJ
8G\] 8c\] 8e\L]	16g\] 16gg\LL]	16g\ 16gg\LL
.	16ee\J	16ee\J
8AA\ 8A\J	8g\ 8cc#\ 8ee\J	8g\ 8cc#\ 8ee\J
=7	=7	=7
*	*^	*^
8.AA\ 8.A\L	4r	8.f#\ 8.ccn\ 8.ee\L	4r	16f#\ 16ccn\ 16ee\LL
.	.	.	.	16f#\ 16cc\ 16ee\
.	.	.	.	16f#\ 16cc\ 16ee\
[16GG\ [16G\Jk	.	16fn\ 16b\ [16ee\Jk	.	16fn\ 16b\ 16ee\JJ
8GG\] 8G\L]	16ee/LL]	8f\ 8b\L	16ee/LL	8f\ 8b\L
.	16b/J	.	16b/J	.
8GG\ 8G\J	8dd/J	8f\ 8b\J	8dd/J	8f\ 8b\J
*	*v	*v	*	*
*	*	*v	*v
=8	=8	=8
8C\ 8c\L	[4e/ [4cc/	4e/ 4cc/
8G\J	.	.
8C/	8e/] 8cc/]	8e/ 8cc/
8r	8r	8r
=9:|!	=9:|!	=9:|!
!!
!!
!! Exercise No. 3
!!
!!
*>C	*>C	*>C
*clefF4	*clefG2	*clefG2
*k[]	*k[]	*k[]
*M2/4	*M2/4	*M2/4
8F\ 8A\ 8c\ 8f\L	16a\ 16ff\ 16aa\LK	16a\ 16aa\LL
.	8a\ 8ff\ 8aa\	16a\ 16aa\
8F\ 8A\ 8c\ 8f\J	.	16a\ 16aa\
.	[16b\ [16dd#\ [16bb\Jk	16b\ 16bb\JJ
8F#\ 8A\ 8c\ 8d#\L	16b\] 16dd#\] 16bb\LK]	16b\ 16bb\LL
.	8b\ 8dd#\ 8bb\	16b\ 16bb\
8F#\ 8A\ 8c\ 8d#\J	.	16b\ 16bb\
.	16a\ 16dd#\ 16aa\Jk	16a\ 16aa\JJ
=10	=10	=10
*	*^	*
16G\ 16c\ 16e\LK	4r	16a\ 16ee\ 16aa\LK	16a\ 16aa\LL
8G\ 8c\ 8e\	.	8g\ 8cc\ 8ee\ 8gg\	16g\ 16gg\
.	.	.	16g\ 16gg\
[16AA\ [16A\Jk	.	[16g\ [16cc#\ [16ee\ [16gg\Jk	16g\ 16gg\JJ
4AA\] 4A\]	16gg/LK	16g\] 16cc#\] 16ee\] 16gg\LK]	16g\ 16gg\LL
.	8ff/	8.g\ 8.cc#\J	16f\ 16ff\
.	.	.	16f\ 16ff\
.	16ee/Jk	.	16e\ 16ee\JJ
=11	=11	=11	=11
8.AA\ 8.A\L	16ee'/LK	8.f#\ 8.ccn\L	16f#\ 16ccn\ 16ee\LL
.	8cc/	.	16f#\ 16cc\
.	.	.	16f#\ 16cc\
[16GG\ [16G\Jk	[16dd/Jk	[16fn\ [16b\Jk	16fn\ 16b\ 16dd\JJ
8GG\] 8G\L]	16dd'/LL]	8f\] 8b\L]	16f\ 16b\ 16dd\LL
.	16ee/J	.	16f\ 16b\ 16ee\J
8GG\ 8G\J	8dd/J	8f\ 8b\J	8f\ 8b\ 8dd\J
*	*v	*v	*
=12	=12	=12
8C\ 8c\L	[4e/ [4cc/	4e/ 4cc/
8G\J	.	.
8C/	8e/] 8cc/]	8e/ 8cc/
8r	8r	8r
=13:|!	=13:|!	=13:|!
!!
!!
!! Exercise No. 4
!!
!!
*>D	*>D	*>D
*clefF4	*clefG2	*clefG2
*k[]	*k[]	*k[]
*M2/4	*M2/4	*M2/4
8F\ 8A\ 8c\ 8f\L	16a\ 16aa\LL	16a\ 16aa\LL
.	(16cc\	16cc\
8F\ 8A\ 8c\ 8f\J	16ff\	16ff\
.	[16a\ [16aa\JJ)	16a\ 16aa\JJ
8F#\ 8A\ 8c\ 8d#\L	16a\] 16aa\LL]	16a\ 16aa\LL
.	(16cc\	16cc\
8A\ 8c\ 8d#\J	16dd#\	16dd#\
.	16ff#\JJ)	16ff#\JJ
=14	=14	=14
8G\ 8c\ 8e\L	(16gg\LL	16gg\LL
.	16cc\	16cc\
8G\ 8c\ 8e\J	16ee\)	16ee\
.	[16g\ [16gg\JJ	16g\ 16gg\JJ
8G\ 8c\ 8e\L	16g\] 16gg\LL]	16g\ 16gg\LL
.	(16g\	16g\
8G\ 8c\ 8e\J	16cc\	16cc\
.	16ee\JJ)	16ee\JJ
=15	=15	=15
8G\ 8B\ 8f\L	16g\ 16gg\LL	16g\ 16gg\LL
.	(16b\	16b\
8G\ 8B\ 8f\J	16dd\	16dd\
.	[16g\ [16gg\JJ)	16g\ 16gg\JJ
8G\ 8B\ 8f\L	16g\] 16gg\LL]	16g\ 16gg\LL
.	(16b\	16b\
8G\ 8B\ 8f\J	16dd\	16dd\
.	16gg\JJ)	16gg\JJ
=16	=16	=16
*^	*	*
4e/	8c\L	4cc\	4cc\
.	8G\J	.	.
8C/	4r	8cc\ 8ee\ 8ccc\	8cc\ 8ee\ 8ccc\
8r	.	8r	8r
*v	*v	*	*
=17:|!	=17:|!	=17:|!
!!
!!
!! Exercise No. 5
!!
!!
*>E	*>E	*>E
*clefF4	*clefG2	*clefG2
*k[]	*k[]	*k[]
*M2/4	*M2/4	*M2/4
8FF\ 8F\L	16aa\LK	16aa\LL
.	8a\ 8cc\ 8ff\	16a\ 16cc\ 16ff\
8A\ 8c\ 8f\J	.	16a\ 16cc\ 16ff\
.	16aa\Jk	16aa\JJ
8C\L	8a\ 8cc\ 8ff\L	8a\ 8cc\ 8ff\L
8A\ 8c\ 8f\J	16aa\L	16aa\L
.	[16a\ [16cc\ [16ff\JJ	16a\ 16cc\ 16ff\JJ
=18	=18	=18
8FF\ 8F\L	16a\] 16cc\] 16ff\LL]	16a\ 16cc\ 16ff\LL
.	16aa\J	16aa\J
8A\ 8c\ 8f\J	8a\ 8cc\ 8ff\J	8a\ 8cc\ 8ff\J
8FF/ 8F/L	8a\ 8cc\ 8ff\ 8aa\L	8a\ 8cc\ 8ff\ 8aa\L
8FF#/ 8F#/J	8a\ 8cc\ 8dd#\ 8aa\J	8a\ 8cc\ 8dd#\ 8aa\J
=19	=19	=19
8GG\ 8G\L	16gg\LK	16gg\LL
.	8g\ 8cc\ 8ee\	16g\ 16cc\ 16ee\
8G\ 8c\ 8e\J	.	16g\ 16cc\ 16ee\
.	16gg\Jk	16ee\JJ
8C\L	8g\ 8cc\ 8ee\L	8g\ 8cc\ 8ee\L
8G\ 8c\ 8e\J	16gg\L	16gg\L
.	[16g\ [16cc\ [16ee\JJ	16g\ 16cc\ 16ee\JJ
=20	=20	=20
8C\L	16g\] 16cc\] 16ee\LL]	16g\ 16cc\ 16ee\LL
.	16gg\J	16gg\J
8G\ 8c\ 8e\J	8g\ 8cc\ 8ee\J	8g\ 8cc\ 8ee\J
8C\ 8c\L	8g\ 8cc\ 8ee\ 8gg\L	8g\ 8cc\ 8ee\ 8gg\L
8C#\ 8c#\J	8g\ 8a#\ 8ee\ 8gg\J	8g\ 8a#\ 8ee\ 8gg\J
=21	=21	=21
*M2/4	*M2/4	*M2/4
8D\ 8d\L	16gg\LK	16gg\LL
.	8g\ 8b\ 8ff\	16g\ 16b\ 16ff\
8G\ 8B\ 8d\J	.	16g\ 16b\ 16ff\
.	16gg\Jk	16gg\JJ
8GG\ 8G\L	8g\ 8b\ 8dd\L	8g\ 8b\ 8dd\L
8G\ 8B\ 8d\J	16gg\L	16gg\L
.	[16g\ [16b\ [16ff\JJ	16g\ 16b\ 16ff\JJ
=22	=22	=22
8D\ 8d\L	16g\] 16b\] 16ff\LL]	16g\ 16b\ 16ff\LL
.	16gg\J	16gg\J
8G\ 8B\ 8f\J	8g\ 8b\ 8dd\J	8g\ 8b\ 8dd\J
8GG\ 8G\L	8g\ 8b\ 8dd\ 8gg\L	8g\ 8b\ 8dd\ 8gg\L
8G\ 8B\ 8f\J	8b\ 8dd\ 8ff\ 8gg\J	8b\ 8dd\ 8ff\ 8gg\J
=23	=23	=23
8C\L	[2cc\ [2ee\ [2ccc\	2cc\ 2ee\ 2ccc\
16E\L	.	.
16G\JJ	.	.
16A\LK	.	.
8G\	.	.
16E\Jk	.	.
=24	=24	=24
8C/	8cc\] 8ee\] 8ccc\]	8cc\ 8ee\ 8ccc\
8r	8r	8r
8CC/ 8C/	8cc\ 8ee\ 8ccc\	8cc\ 8ee\ 8ccc\
8r	8r	8r
=25:|!	=25:|!	=25:|!
!!
!!
!! Exercise No. 6
!!
!!
*>F	*>F	*>F
*clefF4	*clefG2	*clefG2
*k[]	*k[]	*k[]
*M2/4	*M2/4	*M2/4
8.A\L	8.a/L	16a/LL
.	.	16a/
.	.	16a/
16B\Jk	16b/Jk	16b/JJ
16c\LK	16cc\LK	16cc/LL
8A\	8a\	16a/
.	.	16a/
16B\Jk	16b\Jk	16b/JJ
=26	=26	=26
8.A\L	8.a/L	16a/LL
.	.	16a/
.	.	16a/
[16B\Jk	[16b/Jk	16b/JJ
16B\LL]	16b/LL]	16b/LL
16G#\J	16g#/J	16g#/J
8A\J	8a/J	8a/J
=27	=27	=27
8.Gn\L	8.gn/L	16gn/LL
.	.	16g/
.	.	16g/
16A\Jk	16a/Jk	16a/JJ
16c\LK	16cc\LK	16cc/LL
8G\	8g\	16g/
.	.	16g/
16A\Jk	16a\Jk	16a/JJ
=28	=28	=28
8.G\L	8.g/L	16g/LL
.	.	16g/
.	.	16g/
[16A\Jk	[16a/Jk	16a/JJ
16A\LL]	16a/LL]	16a/LL
16F#\J	16f#/J	16f#/J
8G\J	8g/J	8g/J
=29	=29	=29
*M2/4	*M2/4	*M2/4
16Fn\LL	16fn/LL	16fn/LL
16A\	16a/	16a/
16B\	16b/	16b/
[16c\JJ	[16cc/JJ	16cc/JJ
16c\LK]	16cc\LK]	16cc\LL
8B\	8b\	16b\
.	.	16b\
[16A\Jk	[16a\Jk	16a\JJ
=30	=30	=30
16A\LL]	16a/LL]	16a/LL
16G\	16g/	16g/
16F#\	16f#/	16f#/
16G\JJ	16g/JJ	16g/JJ
16A\LK	16a/LK	16a/LL
8G\	8g/	16g/
.	.	16g/
16C\Jk	16c/Jk	16c/JJ
=31	=31	=31
16E\LK	16e/LK	16e/LL
8E\	8e/	16e/
.	.	16e/
[16D\Jk	[16d/Jk	16d/JJ
16D\LL]	16d/LL]	16d/LL
16E\J	16e/J	16e/J
8D\J	8d/J	8d/J
=32	=32	=32
4C/	4c/	4c/
8CC/ 8C/	8c/ 8e/ 8g/ 8cc/	8c/ 8e/ 8g/ 8cc/
8r	8r	8r
==:|!	==:|!	==:|!
*-	*-	*-
!!!ENC: Craig Stuart Sapp
!!!END: 2005/02/02/
